X: 24287
T: Lost In Oberlin
R: reel
M: 4/4
K: Eminor
|:E2G2 F2A2|G2B2 A2c2|BAG2 AGF2|GFE2 FED2|
[1 E2G2 F2A2|G2B2 A2c2|BAG2 AGF2|GFED E4:|
[2 EFG2 FGA2|GAB2 ABc2|BAG2 AGF2|GFED E4||
c3c- cBAc|B2ED E4|F2FG AGFA|GFGA B4|
c3c- cBAc|B2ED E4|F2FG AGFA|G2F2 E3A/B/|
c3c- cedc|B2ED E4|F2FG AGFA|GFGA B4|
c4 A4|B2ED E4|F2FG AGF2|G2F2 E4||

